X:1
T:Title
%%score { ( 1 4 ) | ( 2 3 ) }
L:1/8
M:3/4
K:Eb
V:1 treble nm="Grand Piano"
V:4 treble 
V:2 bass 
V:3 bass 
V:1
 z2 z2[Q:1/4=100] BE | G3 [CEA] [A,DF][B,DG] | [G,E]4 [B,DF].[B,EG] | [DB]3 [DF] [Fd][Ec] | %4
[M:2/4] [DB]4 |[M:1/4] BE |[M:3/4] G3 [EB] [A,EA][B,EG] | [CEA]4 [Ec][CEA] | %8
 [B,EG]3 [G,E] [A,DF][K:bass][F,B,D] |[M:2/4] [G,B,E]4 |[M:1/4][K:treble] z c/ z/ | %11
[M:3/4] [Ge]3 G BF | G>F E2 G[FA]/B/ | z2 z2 .c2 |[M:2/4] [Fd]4 |[M:1/4] [Ge][Fd] | %16
[M:3/4] [Ge]3 [EG] [GB][FA]/G/ | A>B c2 ed/c/ | BA GB [B,FA][DF] |[M:2/4] [G,E]4 |] %20
V:2
 z2 z2 [E,G,E][E,G,] | [E,B,E]3 A,, B,,B,, | E,4 .B,,>=A | [B,,B,]3 [B,,B,] [F,=A,][F,A,] | %4
[M:2/4] [B,,B,]4 |[M:1/4] [E,G,E][E,G,] |[M:3/4] [E,B,E]3 [_D,G,] C,B,, | A,,4 A,,A,, | %8
 B,,3 B,, B,,B,, |[M:2/4] E,4 |[M:1/4] E,[E,B,] |[M:3/4] [E,B,]3 [E,B,E] [G,B,E][B,D] | %12
 [B,E]>[A,D] [E,G,]2 .[E,B,E]>[K:treble]G | [A,E]3[K:bass] [G,B,E] [F,B,][E,B,] |[M:2/4] [B,,B,]4 | %15
[M:1/4] [E,B,][B,,B,] |[M:3/4] [E,B,]3 [E,B,] .[E,E]>[K:treble]E | F>G [A,EA]2 [A,CE][A,E] | %18
 [G,B,E][A,CE] EG[K:bass] z A, |[M:2/4] E,4 |] %20
V:3
 x6 | x6 | z2 z2 z B,, | x6 |[M:2/4] x4 |[M:1/4] x2 |[M:3/4] x6 | x6 | x6 |[M:2/4] x4 |[M:1/4] x2 | %11
[M:3/4] x6 | E,2 z2 z [E,B,][K:treble] | x3[K:bass] x3 |[M:2/4] x4 |[M:1/4] x2 | %16
[M:3/4] z2 z2 z [E,B,][K:treble] | [A,C]2 z2 z2 | z2 B,2[K:bass] B,,2 |[M:2/4] x4 |] %20
V:4
 x6 | x6 | x6 | x6 |[M:2/4] x4 |[M:1/4] x2 |[M:3/4] x6 | x6 | x5[K:bass] x |[M:2/4] x4 | %10
[M:1/4][K:treble] [EGB]A/-[Ad]/ |[M:3/4] x6 | x6 | c3 B A/-[Ad]/[Ge] |[M:2/4] x4 |[M:1/4] x2 | %16
[M:3/4] x6 | x6 | x6 |[M:2/4] x4 |] %20

